X:1
T:The Tested Rock
T:The Tested Rock
T:Barney E. Warren, pub.1911
T:B. E. W.
T:PUBLIC DOMAIN
C:Barney E. Warren, pub.1911
Z:B. E. W.
Z:PUBLIC DOMAIN
%%score ( 1 2 ) ( 3 4 )
L:1/8
Q:1/4=100
M:6/4
K:Bb
V:1 treble nm="Treble"
V:2 treble 
V:3 bass nm="Bass"
V:4 bass 
V:1
 [DF]4 [EF]2 F4 [DB]2 | [EA]4 [EA]2 [EA]4 z2 | [EF]4 [EF]2 [EF]4 [Ec]2 | [DB]4 [EB]2 [DB]4 z2 | %4
w: 1.~Rock of ag- es,|hide my soul,|Keep me while the|bil- lows roll;|
w: 2.~Safe- ly in that|Rock I hide,|While it breaks the|roll- ing tide:|
w: 3.~Rock of ag- es|stands to- day,|Like a mon- arch|in the fray;|
 [Fd]4 [FB]2 [Fe]4 [Fc]2 | [Fd]4 [FB]2 [EG]4 z2 | [DF]4 [DB]2 [FA]4 [Ec]2 | [DB]6 A6 | %8
w: When the threat- ’ning|waves I see,|Let me ev- er|hide in|
w: He whose pow’r con-|trols the deep,|Stands my help- less|soul to|
w: Test- ed by the|great- est storm,|Yet un- shak- en|is its|
 [DB]6 [DB]4 z2 ||"^Refrain" [DF]4 [DF]2 [Fd]4 [FB]2 | [EG]4 [EB]2 [EG]2"^accel." [DF]4 | %11
w: Thee. *|Hide me, bless- ed|Rock of ag- es,|
w: keep. *|||
w: form. *|||
 [DF]4 [CF]2 [DF]4 [EF]2 | [DF]6 [DF]4 z2 |] %13
w: Hide my soul in|Thee. *|
w: ||
w: ||
V:2
 z6 F4 z2 | x12 | x12 | x12 | x12 | x12 | x12 | z6 (C2 D2 E2) | x12 || x12 | x12 | x12 | x12 |] %13
V:3
 [B,,B,]4 [C,A,]2 [D,B,]4 [B,,F,]2 | [C,F,]4 [C,F,]2 [C,F,]4 z2 | [F,A,]4 [F,A,]2 [F,A,]4 [F,A,]2 | %3
 [B,,B,]4 [B,,G,]2 [B,,F,]4 z2 | B,4 [B,D]2 [A,C]4 [A,C]2 | B,4 [D,B,]2 [E,B,]4 z2 | %6
 [B,,B,]4 [B,,B,]2 [D,B,]4 [E,G,]2 | F,6 [F,,F,]6 | [B,,F,]6 [B,,F,]4 z2 || %9
 [B,,B,]4 [B,,B,]2 [B,,B,]4 [D,B,]2 | [E,B,]4 [E,G,]2 [B,,B,]2"^accel." [B,,B,]4 | %11
 [F,B,]4 [F,A,]2 [F,B,]4 [F,,F,C]2 | [B,,B,]6 [B,,B,]4 z2 |] %13
V:4
 x12 | x12 | x12 | x12 | B,4 z2 z6 | B,4 z2 z6 | x12 | F,6 z6 | x12 || x12 | x12 | x12 | x12 |] %13

